X:1
T:Title
%%score { 1 | 2 }
L:1/8
M:3/4
K:Eb
V:1 treble nm="Grand Piano"
V:2 bass 
V:1
 z2 z2[Q:1/4=100] G>_G | G3 [FA] [GB][_Gc] | [GB]2 [EG]2 [DF]>[_D=E] | [DF]3 [Ac] [GB][FA] | %4
[M:2/4] G4 |[M:1/4] G>_G |[M:3/4] G3 [FA] [GB][_Gc] | [GB]2 G2 B>c | d3 e dc |[M:2/4] [DB]4 | %10
[M:1/4] B>c |[M:3/4] B3 G EF | G4 [GB]>[Ac] | [GB]3 G AG |[M:2/4] [DF]4 |[M:1/4] G>B | %16
[M:3/4] c3 d ec | B4 G>[FA] | %18
 [GB]3 [EG] [DF][DB][Q:1/4=97][Q:1/4=94][Q:1/4=91][Q:1/4=88][Q:1/4=84][Q:1/4=81][Q:1/4=78] | %19
[M:2/4] E4 |] %20
V:2
 z2 z2 [E,B,E]>[E,=A,E] | [E,B,E]3 [E,B,] [E,B,][E,=A,] | [E,B,]2 [E,B,]2 [B,,B,]>[B,,B,] | %3
 [B,,B,]3 [B,,B,] [B,,B,][B,,B,] |[M:2/4] [E,B,E]4 |[M:1/4] [E,B,E]>[E,=A,E] | %6
[M:3/4] [E,B,E]3 [E,B,] [E,B,][E,=A,] | [E,B,]2 [E,B,E]2 [G,B,D]>[_G,B,=E] | %8
 [F,B,F]3 [F,CF] [F,B,F][F,=A,E] |[M:2/4] [B,,B,]4 |[M:1/4] [E,G,E]>[E,A,E] | %11
[M:3/4] [E,G,E]3 [E,B,E] [G,B,][B,D] | [E,B,E]4 [E,E]>[E,E] | [E,E]3 [E,B,E] [E,CE][E,B,E] | %14
[M:2/4] [B,,B,]4 |[M:1/4] [E,B,E]>[E,G,E] |[M:3/4] [A,E]3 [A,B,E] [A,CE][A,E] | %17
 [E,G,E]4 [E,B,E]>[E,B,] | [E,E]3 [E,B,] [B,,B,][B,,A,] |[M:2/4] [E,G,]4 |] %20

